X: 1
M: 2/4
K: C
Q: 1/4=60
L: 1/8 
dc Ad | dc Ad | dc Ad | GG AA | 
w:Ra-ul ti-nhaum i-oi-o que io-io-ia-va to-do o di-a
z/2 D/2E/2F/2 G>G | AG F2 |1 z/2 D/2E/2F/2 G>G | AG F2 :|2 z F/2A/2 GG | FE DD |]
w:quan-doo Ra-úl fa-zia ó-ó o i-o-io a-dor-me-cia
